icon-themes/breeze_svg/cmd/sc_extrusiontiltdown.svg

<svg viewBox="0 0 16 16" xmlns="http://www.w3.org/2000/svg"><path d="m8.5 2c-.2761424 0-.5.2238576-.5.5s.2238576.5.5.5.5-.2238576.5-.5-.2238576-.5-.5-.5zm2 0c-.276142 0-.5.2238576-.5.5s.223858.5.5.5.5-.2238576.5-.5-.223858-.5-.5-.5zm2 1c-.276142 0-.5.2238576-.5.5s.223858.5.5.5.5-.2238576.5-.5-.223858-.5-.5-.5zm-6 1c-.2761424 0-.5.2238576-.5.5s.2238576.5.5.5.5-.2238576.5-.5-.2238576-.5-.5-.5zm7 1c-.276142 0-.5.2238576-.5.5s.223858.5.5.5.5-.2238576.5-.5-.223858-.5-.5-.5zm-8 1c-.2761424 0-.5.2238576-.5.5s.2238576.5.5.5.5-.2238576.5-.5-.2238576-.5-.5-.5zm-.5 3v.8886719 2.2402341l-2.28125-2.2402341-.71875.6757811 3.28125 3.251953.21875.183594.21875-.183594 3.28125-3.251953-.71875-.6757811-2.28125 2.2402341v-2.2402341-.8886719z" fill="#4d4d4d"/><path d="m2 6v1h12v-1z" fill="#1d99f3"/></svg>

<svg xmlns="http://www.w3.org/2000/svg" viewBox="0 0 16 16">
 <path 
     style="fill:#4d4d4d" 
     d="M 8.5 2 C 8.2238576 2 8 2.2238576 8 2.5 C 8 2.7761424 8.2238576 3 8.5 3 C 8.7761424 3 9 2.7761424 9 2.5 C 9 2.2238576 8.7761424 2 8.5 2 z M 10.5 2 C 10.223858 2 10 2.2238576 10 2.5 C 10 2.7761424 10.223858 3 10.5 3 C 10.776142 3 11 2.7761424 11 2.5 C 11 2.2238576 10.776142 2 10.5 2 z M 12.5 3 C 12.223858 3 12 3.2238576 12 3.5 C 12 3.7761424 12.223858 4 12.5 4 C 12.776142 4 13 3.7761424 13 3.5 C 13 3.2238576 12.776142 3 12.5 3 z M 6.5 4 C 6.2238576 4 6 4.2238576 6 4.5 C 6 4.7761424 6.2238576 5 6.5 5 C 6.7761424 5 7 4.7761424 7 4.5 C 7 4.2238576 6.7761424 4 6.5 4 z M 13.5 5 C 13.223858 5 13 5.2238576 13 5.5 C 13 5.7761424 13.223858 6 13.5 6 C 13.776142 6 14 5.7761424 14 5.5 C 14 5.2238576 13.776142 5 13.5 5 z M 5.5 6 C 5.2238576 6 5 6.2238576 5 6.5 C 5 6.7761424 5.2238576 7 5.5 7 C 5.7761424 7 6 6.7761424 6 6.5 C 6 6.2238576 5.7761424 6 5.5 6 z M 5 9 L 5 9.8886719 L 5 12.128906 L 2.71875 9.8886719 L 2 10.564453 L 5.28125 13.816406 L 5.5 14 L 5.71875 13.816406 L 9 10.564453 L 8.28125 9.8886719 L 6 12.128906 L 6 9.8886719 L 6 9 L 5 9 z "
     />
 <path 
     style="fill:#1d99f3" 
     d="M 2 6 L 2 7 L 14 7 L 14 6 L 2 6 z "
     />
 </svg>
